X:841
T:Reel 841
M:4/4
K:Dmaj
L:1/8
G|A2AG AGAF|EAAF GECE|FGAB AGFG|Addc d2dc|ABAF DFAF|GFAF GECE|DEFG ABcA|dcAG FDD|c|d2de d2ed|cdef gfge|dfef dfed|cAGE FDDc|d2fd efed|cAAB cdec|dfeg fagb|afge fdd|
